X:1
T:Pardon on Calvary
T:Henry P. Morton
T:Pardon on Calvary
T:Public Domain
T:Public Domain
C:Henry P. Morton
Z:Public Domain
%%score ( 1 2 ) 3
L:1/8
M:6/4
K:Db
V:1 treble 
V:2 treble 
V:3 bass 
V:1
 [FA]2 | [Fd]3 [Fd] [Fd]2 [Gd]2 [Gc]2 [GB]2 | [FA]3 [GB] [FA]2 [DF]4 [Fd]2 | [Gc]3 [GB] [FA]2 | %4
w: 1.~O|ye who have wan- dered in|sor- row a- way, There’s|par- don on|
w: 2.~Since|Je- sus has died on the|cross for us all, There’s|par- don on|
w: 3.~His|hand is held out in com-|pas- sion to you, There’s|par- don on|
w: 4.~O|hast- en to lay all your|sin at His feet, There’s|par- don on|
 [EG]4 [CA]2 | [DF]6- [DF]4 [FA]2 | [Fd]3 [Fd] [Fd]2 [Gd]2 [Gc]2 [GB]2 | %7
w: Cal- va-|ry; * A|par- don to sin- ners is|
w: Cal- va-|ry; * Your|hearts can be cleansed if you|
w: Cal- va-|ry; * Your|long wast- ed lives He in|
w: Cal- va-|ry; * Come|now and ac- cept His re-|
 [FA]3 [GB] [FA]2 [DF]4 [Fd]2 | [Gc]3 [GB] [GA]2 [GA]4 [Gc]2 | [Fd]6- [Fd]4 ||"^Refrain" [Fd]2 | %11
w: of- fered to- day; There’s|par- don on Cal- va-|ry. *||
w: come at His call; There’s|par- don on Cal- va-|ry. *|There’s|
w: love will re- new; There’s|par- don on Cal- va-|ry. *||
w: demp- tion com- plete; There’s|par- don on Cal- va-|ry. *||
 e3 e e2 [GB]4 [Gc]2 | (F4 G2 [Fd]4) [Fd]2 | d3 d d2 | [Ed]4 [E=G]2 | (E4 F2 [GA]4) [GA]2 | %16
w: |||||
w: par- don on Cal- va-|There’s * * par-|* on Cal-|ry; A|par- * * don|
w: |||||
w: |||||
 [Fd]3 [Fd] [Fd]2 [Gd]2 [Gc]2 [GB]2 | [FA]3 [GB] [FA]2 [DF]4 [Fd]2 | [Gc]3 [GB] [GA]2 [GA]4 [Gc]2 | %19
w: |||
w: love from the Fa- ther a-|bove, A par- don on|Cal- va- ry * *|
w: |||
w: |||
 [Fd]6- [Fd]4 |] %20
w: |
w: |
w: |
w: |
V:2
 x2 | x12 | x12 | x6 | x6 | x12 | x12 | x12 | x12 | x10 || x2 | G6 x6 | d6- x6 | F6 | x6 | A6- x6 | %16
w: ||||||||||||||||
w: |||||||||||ry,|don|va-||of|
 x12 | x12 | x12 | x10 |] %20
w: ||||
w: ||||
V:3
 [D,A,]2 | [D,A,]3 [D,A,] [D,A,]2 [D,B,]2 [D,B,]2 [D,C]2 | [D,D]3 [D,D] [D,D]2 [D,A,]4 [D,A,]2 | %3
w: ~|~ ~ ~ ~ ~ ~|~ ~ ~ ~ ~|
 [A,,A,]3 [A,,A,] [A,,A,]2 | [A,,A,]4 [A,,A,]2 | [D,A,]6- [D,A,]4 [D,A,]2 | %6
w: ~ ~ ~|~ ~|~ * ~|
 [D,A,]3 [D,A,] [D,A,]2 [D,B,]2 [D,B,]2 [D,C]2 | [D,D]3 [D,D] [D,D]2 [D,A,]4 [D,A,]2 | %8
w: ~ ~ ~ ~ ~ ~|~ ~ ~ ~ ~|
 [A,E]3 [A,D] [A,C]2 [A,C]4 [A,E]2 | [D,D]6- [D,D]4 || [D,A,]2 | [A,C]6 [A,D]4 [A,E]2 | %12
w: ~ ~ ~ ~ ~|~ *|There’s|par- don on|
 [D,D]4 [D,B,]2 [D,A,]4 [D,A,]2 | [B,,B,]6 | [E,=G,]4 [E,D]2 | [A,C]4 [A,D]2 [A,E]4 [A,C]2 | %16
w: Cal- va- ry, There’s|par-|don on|Cal- va- ry; *|
 [D,A,]3 [D,A,] [D,A,]2 [D,B,]2 [D,B,]2 [D,C]2 | [D,D]3 [D,D] [D,D]2 [D,A,]4 [D,A,]2 | %18
w: ||
 [A,E]3 [A,D] [A,C]2 [A,C]4 [A,E]2 | [D,D]6- [D,D]4 |] %20
w: ||

